rospo-dark/24x24/actions/transform-skew-vertical.svg

<svg height="24" viewBox="0 0 24 24" width="24" xmlns="http://www.w3.org/2000/svg"><path d="m18.769531 0a .34803699.71624863 34.650572 0 0 -.269531.12109375l-13.0019531 9.61718745a.34803699.71624863 34.650572 0 0 -.4980469.8691408v10.392578 2.746094a.34803699.71624863 34.650572 0 0  .4980469.132812l13.0019531-9.617187a.34803699.71624863 34.650572 0 0  .498047-.869141v-13.13867175a.34803699.71624863 34.650572 0 0 -.1875-.25390625.34803699.71624863 34.650572 0 0 -.041016 0zm-13.769531 21h-2v-3h-1v3h-2l2.5 3zm16.5-21-2.5 3h2v3h1v-3h2zm-3.496094 1.4902344v12.1367186l-12.0078122 8.882813v-12.138672z" fill="#d3dae3"/><path d="m17.855469 1.7460938c-.090122-.0239557-.215986.0136328-.353516.1152343l-11.0039061 8.1386719c-.27506.203354-.4981369.592522-.4980469.869141v11.138671c-.00009.276755.2229869.336016.4980469.132813l11.0039061-8.140625c.27506-.203354.498137-.592522.498047-.869141v-11.1367184c.000045-.1383774-.05441-.2240914-.144531-.2480468z" fill="#d3dae3" opacity=".3"/></svg>

<svg xmlns="http://www.w3.org/2000/svg" width="24" height="24" viewBox="0 0 24 24">
 <defs>
  <style id="current-color-scheme" type="text/css">
   .ColorScheme-Text { color:#d3dae3; } .ColorScheme-Highlight { color:#5294e2; }
  </style>
 </defs>
 <path style="fill:currentColor" class="ColorScheme-Text" d="M 18.769531 0 A 0.34803699 0.71624863 34.650572 0 0 18.5 0.12109375 L 5.4980469 9.7382812 A 0.34803699 0.71624863 34.650572 0 0 5 10.607422 L 5 21 L 5 23.746094 A 0.34803699 0.71624863 34.650572 0 0 5.4980469 23.878906 L 18.5 14.261719 A 0.34803699 0.71624863 34.650572 0 0 18.998047 13.392578 L 18.998047 0.25390625 A 0.34803699 0.71624863 34.650572 0 0 18.810547 0 A 0.34803699 0.71624863 34.650572 0 0 18.769531 0 z M 5 21 L 3 21 L 3 18 L 2 18 L 2 21 L 0 21 L 2.5 24 L 5 21 z M 21.5 0 L 19 3 L 21 3 L 21 6 L 22 6 L 22 3 L 24 3 L 21.5 0 z M 18.003906 1.4902344 L 18.003906 13.626953 L 5.9960938 22.509766 L 5.9960938 10.371094 L 18.003906 1.4902344 z"/>
 <path style="fill:currentColor;opacity:0.3" class="ColorScheme-Text" d="M 17.855469 1.7460938 C 17.765347 1.7221381 17.639483 1.7597266 17.501953 1.8613281 L 6.4980469 10 C 6.2229869 10.203354 5.99991 10.592522 6 10.869141 L 6 22.007812 C 5.99991 22.284567 6.2229869 22.343828 6.4980469 22.140625 L 17.501953 14 C 17.777013 13.796646 18.00009 13.407478 18 13.130859 L 18 1.9941406 C 18.000045 1.8557632 17.94559 1.7700492 17.855469 1.7460938 z"/>
</svg>
